X:1
T:Title
%%score { ( 1 4 5 ) | ( 2 3 ) }
L:1/8
M:12/8
K:G
V:1 treble nm="Grand Piano"
V:4 treble 
V:5 treble 
V:2 bass 
V:3 bass 
V:1
 z6 z3 z2[Q:1/4=100] D | G2 A B2 [DA] [EG][DF][CE] [B,D]2 d |[M:11/8] edcBAG[FA]-[FA]- [FA]3 | %3
[M:1/8] d |[M:6/4] e2 edcB c2 cBAG |[M:4/4] A2 [Ad]^c B[Gc] [Fd]2 |[M:2/4] D G2 A |[M:6/4] .B12 | %8
 [Bd]12 | .[Fc]12 | .[GB]12 | .B12 | e6- e3 .[Bd]3 | .[GB]12 |[M:11/8] G-G-G-G-G-G- G3 z2 | %15
[M:1/8] D |[M:6/4] G2 D G2 A B4- BA |[M:11/8] B2 A B2 cd-d- d3 |[M:1/8] d | %19
[M:13/8] edcBAGBc[DGd] [Ge]3 [Bd]/c/ |[M:11/8] [DGB]2 [Bd][Ac][GB][CFA][B,G]-[B,G]- [B,G]3 |] %21
V:2
 z6 z3 z2 [G,B,] | [G,B,D]2 [G,CD] [G,D]2 B,, [C,C]2 [C,G,] [G,,G,]2[K:treble] [G,B,G] | %2
[M:11/8] G2 z z[K:bass] z z z z z z2 |[M:1/8][K:treble] [B,DG] | %4
[M:6/4] z2 z .[B,G]3 z2 z .D3[K:bass] |[M:4/4] [F,D]2 [F,A,][E,A,]- [E,A,][E,A,] [D,A,]2 | %6
[M:2/4] z B,2[K:treble] D |[M:6/4] .G12[K:bass] | G,2 G,, B,,2 D, G,3 B,3 | %9
 A,2 A, A,2 A, z2 F [D,D]3 | [G,D]2 G, G,2 G, .G,3 B,2[K:treble] D | .G12[K:bass][K:treble] | %12
 c6- c3[K:bass] C,3 | D,2 D, D,2 D, z2[K:treble] BA,[B,G][CF] | %14
[M:11/8] [G,B,]2[K:bass] G, G,2 G,G,-G,- G,3 |[M:1/8] D, |[M:6/4] G,2 D, G,2 A, B,4- B,[D,A,D] | %17
[M:11/8][K:treble] [G,B,G]2 [D,A,D] [G,B,G]2 [A,CA][B,DB]-[B,DB]- [B,DB]3 |[M:1/8] [G,B,G] | %19
[M:13/8] G-[B,DG][A,DF]DC[G,B,]G,[K:bass]A,B, C3 z/ A/ |[M:11/8] D,2 [D,G,]A,B,D,G,,-G,,- G,,3 |] %21
V:3
 x12 | x11[K:treble] x |[M:11/8] C[B,D][A,DF][G,DG][K:bass][F,D][E,^CE][D,D]-[D,D]- [D,D]3 | %3
[M:1/8][K:treble] x |[M:6/4] [CG]2 [CG]D-[A,DF][G,DG] [A,DF]2 [A,DF][G,G]-[G,CG][K:bass][G,B,] | %5
[M:4/4] x8 |[M:2/4] x3[K:treble] x |[M:6/4] z2[K:bass] G,, B,,2 D, G,2 C B,2 A, | x12 | z6 .D,6 | %10
 x11[K:treble] x | z2[K:bass] G,, B,,2 D, G,2[K:treble] FGAB | z2 C, E,2 G, C4[K:bass] z A | %13
 z6 D,3[K:treble] D,3 |[M:11/8] x2[K:bass] x9 |[M:1/8] x |[M:6/4] x12 |[M:11/8][K:treble] x11 | %18
[M:1/8] x |[M:13/8] .C3 .[G,G]3 .[DG]3[K:bass] z z2 C, |[M:11/8] z z2 D,2 z z z z z2 |] %21
V:4
 x12 | x12 |[M:11/8] x11 |[M:1/8] x |[M:6/4] x12 |[M:4/4] z2 z G- G z z2 |[M:2/4] x4 | %7
[M:6/4] z2 D D2 D z2 [FA] [GB]2 [Ac] | z2 D D2 D D3 [DGd]3 | D2 D D2 D z2 A [Fd]2 [Fc] | %10
 z2 D D2 D D2 D G2 A | z2 D D2 D D2 ABcd | z2 C C2 C z2 z E2- [Ec] | D2 D D2 D z2 d[Ac]BA | %14
[M:11/8] z2 B, B,2 .B,3 z G2 |[M:1/8] x |[M:6/4] x12 |[M:11/8] x11 |[M:1/8] x | %19
[M:13/8] z z z z z z z z z z z2 E |[M:11/8] x11 |] %21
V:5
 x12 | x12 |[M:11/8] x11 |[M:1/8] x |[M:6/4] x12 |[M:4/4] x8 |[M:2/4] x4 |[M:6/4] z6 D6- | D6 z6 | %9
 z6 .D6 | x12 | x12 | x12 | z6 .D6 |[M:11/8] z z z z z2 B,-B,- B,3 |[M:1/8] x |[M:6/4] x12 | %17
[M:11/8] x11 |[M:1/8] x |[M:13/8] x13 |[M:11/8] x11 |] %21

